svgs/sharp-thin/diploma.svg

<svg xmlns="http://www.w3.org/2000/svg" viewBox="0 0 640 512"><!--! Font Awesome Pro 6.6.0 by @fontawesome - https://fontawesome.com License - https://fontawesome.com/license (Commercial License) Copyright 2024 Fonticons, Inc. --><path d="M246.8 66.6C237.6 54.8 223.5 48 208.6 48C181.8 48 160 69.8 160 96.6l0 47.4 80 0 16 0 51.7 0L246.8 66.6zM144 144l0-47.4C144 60.9 172.9 32 208.6 32c19.8 0 38.6 9.1 50.8 24.7L320 133.8l60.6-77.1c12.2-15.6 31-24.7 50.8-24.7C467.1 32 496 60.9 496 96.6l0 47.4 128 0 16 0 0 16 0 128L576 416 400 383l0 79.8 0 17.2-16-6.4L320 448l-64 25.6L240 480l0-17.2 0-79.8L64 416 0 288 0 160l0-16 16 0 128 0zm96 222.7L240 160l-80 0-16 0L16 160l0 124.2L72.9 398.1 240 366.7zm160 0l167.1 31.3L624 284.2 624 160l-128 0-16 0-80 0 0 206.7zM400 144l80 0 0-47.4C480 69.8 458.2 48 431.4 48c-14.9 0-29 6.8-38.2 18.6L332.3 144l51.7 0 16 0zm-72 16l-16 0-56 0 0 296.4 58.1-23.2 5.9-2.4 5.9 2.4L384 456.4 384 160l-56 0z"/></svg>

<svg xmlns="http://www.w3.org/2000/svg" viewBox="0 0 640 512"><!--! Font Awesome Pro 6.5.2 by @fontawesome - https://fontawesome.com License - https://fontawesome.com/license (Commercial License) Copyright 2024 Fonticons, Inc. --><path d="M246.8 66.6C237.6 54.8 223.5 48 208.6 48C181.8 48 160 69.8 160 96.6V144h80 16 51.7L246.8 66.6zM144 144V96.6C144 60.9 172.9 32 208.6 32c19.8 0 38.6 9.1 50.8 24.7L320 133.8l60.6-77.1c12.2-15.6 31-24.7 50.8-24.7C467.1 32 496 60.9 496 96.6V144H624h16v16V288L576 416 400 383v79.8V480l-16-6.4L320 448l-64 25.6L240 480V462.8 383L64 416 0 288V160 144H16 144zm96 222.7V160H160 144 16V284.2L72.9 398.1 240 366.7zm160 0l167.1 31.3L624 284.2V160H496 480 400V366.7zM400 144h80V96.6C480 69.8 458.2 48 431.4 48c-14.9 0-29 6.8-38.2 18.6L332.3 144H384h16zm-72 16H312 256V456.4l58.1-23.2 5.9-2.4 5.9 2.4L384 456.4V160H328z"/></svg>
